flaticon/files-and-folders/clipboard-23.svg

<svg xmlns="http://www.w3.org/2000/svg" width="32" height="32" viewBox="0 0 24 24">
    <path d="M 18.398438 2.800781 L 16.398438 2.800781 L 16.398438 2.398438 C 16.398438 1.960938 16.039062 1.601562 15.601562 1.601562 L 14.398438 1.601562 L 14.398438 1.199219 C 14.398438 0.519531 13.878906 0 13.199219 0 L 10.800781 0 C 10.121094 0 9.601562 0.558594 9.601562 1.199219 L 9.601562 1.601562 L 8.398438 1.601562 C 7.960938 1.601562 7.601562 1.960938 7.601562 2.398438 L 7.601562 2.800781 L 5.601562 2.800781 C 4.480469 2.800781 3.601562 3.679688 3.601562 4.800781 L 3.601562 22 C 3.601562 23.121094 4.480469 24 5.601562 24 L 18.398438 24 C 19.519531 24 20.398438 23.121094 20.398438 22 L 20.398438 4.800781 C 20.398438 3.679688 19.519531 2.800781 18.398438 2.800781 Z M 8.398438 2.398438 L 10 2.398438 C 10.238281 2.398438 10.398438 2.238281 10.398438 2 L 10.398438 1.199219 C 10.398438 0.960938 10.558594 0.800781 10.800781 0.800781 L 13.199219 0.800781 C 13.441406 0.800781 13.601562 1 13.601562 1.199219 L 13.601562 2 C 13.601562 2.238281 13.761719 2.398438 14 2.398438 L 15.601562 2.398438 L 15.601562 5.199219 L 8.398438 5.199219 Z M 19.601562 22 C 19.601562 22.679688 19.078125 23.199219 18.398438 23.199219 L 5.601562 23.199219 C 4.921875 23.199219 4.398438 22.679688 4.398438 22 L 4.398438 4.800781 C 4.398438 4.121094 4.921875 3.601562 5.601562 3.601562 L 7.601562 3.601562 L 7.601562 5.199219 C 7.601562 5.640625 7.960938 6 8.398438 6 L 12 6 L 12 6.800781 L 12.800781 6.800781 L 12.800781 6 L 15.601562 6 C 16.039062 6 16.398438 5.640625 16.398438 5.199219 L 16.398438 3.601562 L 18.398438 3.601562 C 19.078125 3.601562 19.601562 4.121094 19.601562 4.800781 Z M 19.601562 22"/>
    <path d="M11.199219 6.800781L12 6.800781 12 7.601562 11.199219 7.601562zM12 7.601562L12.800781 7.601562 12.800781 8.398438 12 8.398438zM11.199219 8.398438L12 8.398438 12 9.199219 11.199219 9.199219zM12 9.199219L12.800781 9.199219 12.800781 10 12 10zM12 12.398438L12.800781 12.398438 12.800781 13.199219 12 13.199219zM11.199219 13.199219L12 13.199219 12 14 11.199219 14zM11.199219 11.601562L12 11.601562 12 12.398438 11.199219 12.398438zM12 10.800781L12.800781 10.800781 12.800781 11.601562 12 11.601562zM11.199219 10L12 10 12 10.800781 11.199219 10.800781zM11.199219 14.800781L12 14.800781 12 15.601562 11.199219 15.601562zM12 14L12.800781 14 12.800781 14.800781 12 14.800781zM10.398438 16.398438L10.398438 18C10.398438 18.878906 11.121094 19.601562 12 19.601562 12.878906 19.601562 13.601562 18.878906 13.601562 18L13.601562 16.398438 12.800781 16.398438 12.800781 15.601562 12 15.601562 12 16.398438zM12.800781 18C12.800781 18.441406 12.441406 18.800781 12 18.800781 11.558594 18.800781 11.199219 18.441406 11.199219 18L11.199219 17.199219 12.800781 17.199219zM12.800781 18"/>
</svg>

<svg xmlns="http://www.w3.org/2000/svg" width="32" height="32" viewBox="0 0 24 24">
    <path d="M18.398 2.8h-2v-.402a.8.8 0 0 0-.796-.796h-1.204v-.403C14.398.52 13.878 0 13.2 0h-2.398c-.68 0-1.2.559-1.2 1.2v.402H8.399a.8.8 0 0 0-.796.796v.403h-2c-1.122 0-2 .879-2 2V22c0 1.121.878 2 2 2h12.796c1.122 0 2-.879 2-2V4.8c0-1.12-.878-2-2-2zm-10-.402H10c.238 0 .398-.16.398-.398v-.8c0-.24.16-.4.403-.4h2.398a.4.4 0 0 1 .403.4V2c0 .238.16.398.398.398h1.602V5.2H8.398zM19.602 22c0 .68-.524 1.2-1.204 1.2H5.602A1.18 1.18 0 0 1 4.398 22V4.8c0-.679.524-1.198 1.204-1.198h2v1.597c0 .442.359.801.796.801H12v.8h.8V6h2.802c.437 0 .796-.36.796-.8V3.601h2c.68 0 1.204.52 1.204 1.199zm0 0"/>
    <path d="M11.2 6.8h.8v.802h-.8zm0 0M12 7.602h.8v.796H12zm0 0M11.2 8.398h.8V9.2h-.8zm0 0M12 9.2h.8v.8H12zm0 0M12 12.398h.8v.801H12zm0 0M11.2 13.2h.8v.8h-.8zm0 0M11.2 11.602h.8v.796h-.8zm0 0M12 10.8h.8v.802H12zm0 0M11.2 10h.8v.8h-.8zm0 0M11.2 14.8h.8v.802h-.8zm0 0M12 14h.8v.8H12zm0 0M10.398 16.398V18c0 .879.723 1.602 1.602 1.602.879 0 1.602-.723 1.602-1.602v-1.602H12.8v-.796H12v.796zM12.801 18a.802.802 0 0 1-1.602 0v-.8h1.602zm0 0"/>
</svg>
